X: 40092
T: Thurot
R: jig
M: 6/8
K: Gmajor
|:D|GBd dBG|AGA BGG|GBd dBG|AGA B2D|
GBd dBG|AGA BGE|DcB AGF|~ G3 G2:|
B|ceg gfe|dgB AGA|ceg gfe|dcB A2 D|
GBd dBG|ceg gfe|dgB AGA|~G3 G2:|

